im/feed.svg

<svg version="1.1" xmlns="http://www.w3.org/2000/svg" viewBox="0 0 16 16" height="1em" width="1em">
  <path fill="#000000" d="M6 8c0-1.105 0.895-2 2-2s2 0.895 2 2c0 1.105-0.895 2-2 2s-2-0.895-2-2zM10.38 3.602c1.56 0.846 2.62 2.498 2.62 4.398s-1.059 3.552-2.62 4.398c0.689-1.096 1.12-2.66 1.12-4.398s-0.431-3.302-1.12-4.398zM4.5 8c0 1.738 0.431 3.302 1.12 4.398-1.56-0.846-2.62-2.498-2.62-4.398s1.059-3.552 2.62-4.398c-0.689 1.096-1.12 2.66-1.12 4.398zM1.5 8c0 2.686 0.85 5.097 2.198 6.746-2.223-1.421-3.698-3.911-3.698-6.746s1.474-5.325 3.698-6.746c-1.348 1.649-2.198 4.060-2.198 6.746zM12.302 1.254c2.223 1.421 3.698 3.911 3.698 6.746s-1.474 5.325-3.698 6.746c1.348-1.649 2.198-4.060 2.198-6.746s-0.85-5.097-2.198-6.746z"/>
</svg>

<svg xmlns="http://www.w3.org/2000/svg" viewBox="0 0 16 16" height="1em" width="1em">
  <path d="M6 8a2 2 0 1 1 3.999-.001A2 2 0 0 1 6 8zm4.38-4.398a4.999 4.999 0 0 1 0 8.796c.689-1.096 1.12-2.66 1.12-4.398s-.431-3.302-1.12-4.398zM4.5 8c0 1.738.431 3.302 1.12 4.398a4.999 4.999 0 0 1 0-8.796C4.931 4.698 4.5 6.262 4.5 8zm-3 0c0 2.686.85 5.097 2.198 6.746C1.475 13.325 0 10.835 0 8s1.474-5.325 3.698-6.746C2.35 2.903 1.5 5.314 1.5 8zm10.802-6.746C14.525 2.675 16 5.165 16 8s-1.474 5.325-3.698 6.746C13.65 13.097 14.5 10.686 14.5 8s-.85-5.097-2.198-6.746z"/>
</svg>
